X: 36
T: Missa Et trop penser &mdash; Gloria
C: Gaspar van Weerbeke
%%abc-version 2.0
%%abcx-abcm2ps-target-version 5.9.1 (29 Sep 2008)
%%abc-creator hum2abc beta
%%abcx-conversion-date 2022/03/06 13:05:54
%%abc-copyright Copyright 2016, Kolb, Paul
%%abc-edited-by Zybina, Karina
%%humdrum-veritas 1838052607
%%humdrum-veritas-data 984456179
%%linebreak <none>
%%barnumbers 0
L: 1/4
M: 3/2
N: Derived from Gas0202b-Missa_Et_trop_penser-Gloria.krn
%%staves [1 2 3 4]
V: 1 clef=treble
V: 2 clef=treble-8
V: 3 clef=treble-8
V: 4 clef=bass
K: F
[V:1] G4DE | 
[V:2] G6 | 
[V:3] z6 | 
[V:4] z6 | 
[V:1] DG2E^F2 | 
[V:2] G4A2 | 
[V:3] z6 | 
[V:4] z6 | 
[V:1] G2z2G2 | 
[V:2] G>ABcBG | 
[V:3] z6 | 
[V:4] z6 | 
[V:1] AB2AG3/_E/ | 
[V:2] d2dd_e2 | 
[V:3] z6 | 
[V:4] z6 | 
[V:1] F2B,2_E2 | 
[V:2] df>_edc2 | 
[V:3] z6 | 
[V:4] z6 | 
[V:1] DF2DC2 | 
[V:2] B>AFB2_e | 
[V:3] z6 | 
[V:4] z6 | 
[V:1] B,B2AB2 | 
[V:2] dBc2B2 | 
[V:3] z6 | 
[V:4] z6 | 
[V:1] AAAA2B- | 
[V:2] z2d2dd | 
[V:3] z6 | 
[V:4] z6 | 
[V:1] BAF2GF | 
[V:2] d2d2_ed | 
[V:3] z6 | 
[V:4] z6 | 
[V:1] DC>DF_E2 | 
[V:2] f_e2d2c | 
[V:3] z6 | 
[V:4] z6 | 
[V:1] D4z2 | 
[V:2] d2zd2d | 
[V:3] z6 | 
[V:4] z6 | 
[V:1] D2DF2F | 
[V:2] ff2<B2A | 
[V:3] z6 | 
[V:4] z6 | 
[V:1] G2A2zB- | 
[V:2] BGF2G2 | 
[V:3] z6 | 
[V:4] z6 | 
[V:1] BAFD2F- | 
[V:2] GFB>cd2 | 
[V:3] z6 | 
[V:4] z6 | 
[V:1] F/_E/D/C/B,D>EF/G/ | 
[V:2] Bf>_ed/c<BA/ | 
[V:3] z6 | 
[V:4] z6 | 
[V:1] BA2G2^F | 
[V:2] GFG2A2 | 
[V:3] z6 | 
[V:4] z6 | 
[V:1] G2zGGG | 
[V:2] G4z2 | 
[V:3] z6 | 
[V:4] G,,2G,,>A,,B,,C, | 
[V:1] B2GG_E2 | 
[V:2] d2_e3c | 
[V:3] G6 | 
[V:4] G,,2C,2C,C, | 
[V:1] F>_E D/C/B,zB- | 
[V:2] d>c B/A/GFG | 
[V:3] B6- | 
[V:4] B,,>C,D,_E,D,E, | 
[V:1] B/c<dc/B/A/G2 | 
[V:2] FDG>AB3/c/ | 
[V:3] B6- | 
[V:4] B,,2z_E,>F,G,- | 
[V:1] BG2F/_E/D2 | 
[V:2] d2<_e2f2 | 
[V:3] B6 | 
[V:4] G,/F,/_E,2D,/C,/B,,2 | 
[V:1] C2zc>BA/G/ | 
[V:2] _eg>f_e/d/c2 | 
[V:3] G6 | 
[V:4] C,2_E,2E,E, | 
[V:1] ^F>EFG2F | 
[V:2] d3c/B/A2 | 
[V:3] A6 | 
[V:4] D,4D,2 | 
[V:1] G2zD_E2 | 
[V:2] G2FB2A | 
[V:3] B4z2 | 
[V:4] B,,_E,D,B,,C,2 | 
[V:1] D>_E F/G/A2G/F/ | 
[V:2] B>cd>_ef2 | 
[V:3] z6 | 
[V:4] G,,2zD,>_E,F, | 
[V:1] Bc>FB2A | 
[V:2] d_e>dc/B/c2 | 
[V:3] z6 | 
[V:4] B,,_A,,2B,,F,2 | 
[V:1] B3A/G<FG/ | 
[V:2] B>AFB2A- | 
[V:3] d6 | 
[V:4] B,,2B,,>C, D,/_E,/F,- | 
[V:1] A>G E/F<GF/D- | 
[V:2] A/B<cB<GA/B- | 
[V:3] c4B2- | 
[V:4] F,/_E,<C,D,<E,D,/B,,- | 
[V:1] D/E<FE<CD/E- | 
[V:2] B/A<FG<AG/E/F/ | 
[V:3] B2A4 | 
[V:4] B,,/C,<D,C,<A,,B,,/C,- | 
[V:1] E/F<GF/E/D<ED/ | 
[V:2] G>ABcc2 | 
[V:3] G6 | 
[V:4] C,G,,2C,>B,,C, | 
[V:1] F3_E/D/C2 | 
[V:2] Ad2B2A | 
[V:3] F6 | 
[V:4] D,2D,>_E,F,2 | 
[V:1] zGB2G2 | 
[V:2] B>cd2z_e | 
[V:3] z2z2GB- | 
[V:4] G,B,2G,B,_E, | 
[V:1] FGBcd3/c/ | 
[V:2] f_egf/_e/df- | 
[V:3] BG2ABd- | 
[V:4] D,_E,>D,C,B,,3/C,/ | 
[V:1] BA2G2^F | 
[V:2] f2Bcd2 | 
[V:3] dcBGA2 | 
[V:4] D,/_E,/F,G,E,D,2 | 
[V:1] G2z2D2 | 
[V:2] d2z2B2 | 
[V:3] G4z2 | 
[V:4] G,,4z2 | 
[V:1] D_E2DD2 | 
[V:2] Bc2GFG | 
[V:3] z6 | 
[V:4] z6 | 
[V:1] DF>_ED/C/DE- | 
[V:2] Dd>cB/A/Bc- | 
[V:3] z6 | 
[V:4] z6 | 
[V:1] E/D/C/B,/A,B2A | 
[V:2] c/B/A/G/fdc2 | 
[V:3] z6 | 
[V:4] z2z2F,2 | 
[V:1] B4z2 | 
[V:2] B4AB- | 
[V:3] d6- | 
[V:4] G,4D,2 | 
[V:1] B2AGFB- | 
[V:2] BA/G/FGAG- | 
[V:3] d6- | 
[V:4] G,,2zG,,D,G,, | 
[V:1] BA2GFB | 
[V:2] Gd>cBAG | 
[V:3] d6- | 
[V:4] G,D,2G,,D,G, | 
[V:1] AG2FBA/G/ | 
[V:2] ABA2G2 | 
[V:3] d6 | 
[V:4] F,G,D,2G,,2 | 
[V:1] F2zF2F | 
[V:2] D2zd2d | 
[V:3] A6- | 
[V:4] zD,2D,D,D, | 
[V:1] FFF>GA2 | 
[V:2] ddd2c2 | 
[V:3] A6 | 
[V:4] D,2D,>E,F,2 | 
[V:1] DG>FE/D/E2 | 
[V:2] z6 | 
[V:3] B4c2 | 
[V:4] G,2z2A,2 | 
[V:1] D2zd>cA | 
[V:2] f3d>ef | 
[V:3] d6- | 
[V:4] B,>A,F,G,2F, | 
[V:1] B>AFB>AB | 
[V:2] B>c d/c/B/A/GB | 
[V:3] d6 | 
[V:4] G,2D,G,2G, | 
[V:1] cA>GF/E/D2 | 
[V:2] F>GAABd- | 
[V:3] c4B2- | 
[V:4] A,F,>E,F,G,G,,- | 
[V:1] d2_ec>BA/G/ | 
[V:2] ddc_e>dB/c/ | 
[V:3] B2G4 | 
[V:4] G,,/A,,/B,,C,2_E,2 | 
[V:1] FA3/G//F//E^F2 | 
[V:2] d2z2d2 | 
[V:3] A6 | 
[V:4] D,F,3/_E,//D,//C,D,2 | 
[V:1] G6- | 
[V:2] d6- | 
[V:3] G6 | 
[V:4] G,,6- | 
[V:1] G6 ||  
[V:2] d6 ||  
[V:3] G6 ||  
[V:4] G,,6 ||  
[V:1] [M:2/2]z4 | 
[V:2] [M:2/2]G4 | 
[V:3] [M:2/2]z4 | 
[V:4] [M:2/2]G,4- | 
[V:1] z4 | 
[V:2] B3A/G/ | 
[V:3] z4 | 
[V:4] G,3F,/E,/ | 
[V:1] z4 | 
[V:2] A2B2 | 
[V:3] z4 | 
[V:4] F,2G,2 | 
[V:1] z4 | 
[V:2] G2zd- | 
[V:3] z4 | 
[V:4] B,4 | 
[V:1] z4 | 
[V:2] dcBA/G/ | 
[V:3] z4 | 
[V:4] A,2G,2 | 
[V:1] z4 | 
[V:2] A>BAd- | 
[V:3] z4 | 
[V:4] D,2F,2 | 
[V:1] z4 | 
[V:2] dc/B/ c/B/A/G/ | 
[V:3] z4 | 
[V:4] _E,4 | 
[V:1] z4 | 
[V:2] F2DF- | 
[V:3] z4 | 
[V:4] D,2zD,- | 
[V:1] z4 | 
[V:2] FG_E2 | 
[V:3] z4 | 
[V:4] D,B,,C,2 | 
[V:1] z4 | 
[V:2] D2EF- | 
[V:3] z4 | 
[V:4] D,F,G,A,- | 
[V:1] z4 | 
[V:2] FE/D/EF | 
[V:3] z4 | 
[V:4] A,G,/F,/G,D,- | 
[V:1] z4 | 
[V:2] DG2^F | 
[V:3] z4 | 
[V:4] D,B,,A,,2 | 
[V:1] D2EF- | 
[V:2] GBcd- | 
[V:3] z4 | 
[V:4] G,,2z2 | 
[V:1] FE/D/EF | 
[V:2] dc/B/cd | 
[V:3] z4 | 
[V:4] z4 | 
[V:1] DG2^F | 
[V:2] BcA2 | 
[V:3] z4 | 
[V:4] z2D,2 | 
[V:1] G2z2 | 
[V:2] G2d2- | 
[V:3] z4 | 
[V:4] _E,>D,B,,2- | 
[V:1] B3B | 
[V:2] ddd2 | 
[V:3] z4 | 
[V:4] B,,B,,B,,2 | 
[V:1] B>AFG- | 
[V:2] B4- | 
[V:3] z4 | 
[V:4] z_E,D,E,- | 
[V:1] GF/_E/DF- | 
[V:2] B3c | 
[V:3] z4 | 
[V:4] E,D,/C,/B,,2- | 
[V:1] F/_E/D/C/B,B | 
[V:2] d_efg | 
[V:3] z4 | 
[V:4] B,,2B,,2 | 
[V:1] AG2F | 
[V:2] f_e2d- | 
[V:3] z4 | 
[V:4] z4 | 
[V:1] _E2z2 | 
[V:2] dcd2 | 
[V:3] z4 | 
[V:4] z2D,2- | 
[V:1] D/E/F/G/AB | 
[V:2] z2d2- | 
[V:3] z4 | 
[V:4] D,E,F,G, | 
[V:1] Ad2^c | 
[V:2] d2e2 | 
[V:3] z4 | 
[V:4] F,D,A,2 | 
[V:1] d3c | 
[V:2] zd2e | 
[V:3] z4 | 
[V:4] z4 | 
[V:1] AB>Ac- | 
[V:2] fg>f_e/d/ | 
[V:3] z4 | 
[V:4] z4 | 
[V:1] c/B/A/G<^FE/ | 
[V:2] c2d2 | 
[V:3] z4 | 
[V:4] z2D,2 | 
[V:1] G3^F | 
[V:2] _e3d | 
[V:3] z4 | 
[V:4] C,3D, | 
[V:1] ^F4 | 
[V:2] d2D3/E/ | 
[V:3] z4 | 
[V:4] D,2z2 | 
[V:1] D2E3/F/ | 
[V:2] FG2A | 
[V:3] z4 | 
[V:4] z2C,3/D,/ | 
[V:1] G2F3/G/ | 
[V:2] GA2B | 
[V:3] z4 | 
[V:4] E,C,D,3/E,/ | 
[V:1] A2G3/A/ | 
[V:2] AB2c | 
[V:3] z4 | 
[V:4] F,D,_E,3/F,/ | 
[V:1] B2A2 | 
[V:2] Bc2d- | 
[V:3] z4 | 
[V:4] G,_E,F,3/E,/ | 
[V:1] F2G2 | 
[V:2] d/c/B/A/G_e- | 
[V:3] z4 | 
[V:4] D,2zG,- | 
[V:1] zG2F/E/ | 
[V:2] e/d/c/B/c2 | 
[V:3] z4 | 
[V:4] G,/F,/_E,/D,/E,2 | 
[V:1] F3E | 
[V:2] d>cA2- | 
[V:3] z4 | 
[V:4] D,3C, | 
[V:1] FG2^F | 
[V:2] AGA2 | 
[V:3] z4 | 
[V:4] D,_E,D,2 | 
[V:1] G4 ||  
[V:2] G4 ||  
[V:3] z4 ||  
[V:4] G,,4 ||  
[V:1] [M:2/2]z4 | 
[V:2] [M:2/2]z4 | 
[V:3] [M:2/2]z4 | 
[V:4] [M:2/2]G,4 | 
[V:1] z4 | 
[V:2] d4 | 
[V:3] z4 | 
[V:4] G,G,2F,/E,/ | 
[V:1] z4 | 
[V:2] dd2c/B/ | 
[V:3] d4 | 
[V:4] D,2G,2 | 
[V:1] A4 | 
[V:2] A2d2 | 
[V:3] dd2c/B/ | 
[V:4] F,2D,2 | 
[V:1] AAAG/F/ | 
[V:2] c2A2 | 
[V:3] A4- | 
[V:4] F,3G, | 
[V:1] E2A2 | 
[V:2] cd/e/f2 | 
[V:3] A4 | 
[V:4] A,2F,2 | 
[V:1] G2G/F/E/D/ | 
[V:2] d2B3/G/ | 
[V:3] B4 | 
[V:4] G,2zG, | 
[V:1] E>FGA- | 
[V:2] G2z2 | 
[V:3] c4- | 
[V:4] C,>D,E,F,- | 
[V:1] AG/F/E2 | 
[V:2] A>Bc2 | 
[V:3] c4 | 
[V:4] F,E,/D,/A,2 | 
[V:1] D>E F/G/A- | 
[V:2] A>GFE | 
[V:3] d4- | 
[V:4] D,3E, | 
[V:1] ABcA- | 
[V:2] D2zF- | 
[V:3] d2c2- | 
[V:4] F,G,A,2 | 
[V:1] A/G/F/E/DG- | 
[V:2] F/G/ABG | 
[V:3] c2B2 | 
[V:4] F,2G,2 | 
[V:1] G^F/E/F2 | 
[V:2] d4- | 
[V:3] A4 | 
[V:4] D,4 | 
[V:1] G4 | 
[V:2] d4 | 
[V:3] G4 | 
[V:4] z4 | 
[V:1] z4 | 
[V:2] z2D2 | 
[V:3] z4 | 
[V:4] G,,2B,,2- | 
[V:1] z4 | 
[V:2] F3G | 
[V:3] z4 | 
[V:4] B,,C,D,2 | 
[V:1] z4 | 
[V:2] A2z2 | 
[V:3] z4 | 
[V:4] z2G,,2- | 
[V:1] z4 | 
[V:2] D3E | 
[V:3] z4 | 
[V:4] G,,A,,B,,C, | 
[V:1] z4 | 
[V:2] FGA2 | 
[V:3] z4 | 
[V:4] D,2z2 | 
[V:1] z4 | 
[V:2] z2D2- | 
[V:3] z4 | 
[V:4] G,,3A,, | 
[V:1] z4 | 
[V:2] DEFG | 
[V:3] z4 | 
[V:4] B,,C,D,E, | 
[V:1] z4 | 
[V:2] ABcd | 
[V:3] z4 | 
[V:4] F,G,E,2 | 
[V:1] z4 | 
[V:2] B>GA2 | 
[V:3] z4 | 
[V:4] D,G,2F, | 
[V:1] z4 | 
[V:2] Gg2^f | 
[V:3] z4 | 
[V:4] B,>G,A,2 | 
[V:1] [M:3/2]d2d2d2 | 
[V:2] [M:3/2]g4f2 | 
[V:3] [M:3/2]z6 | 
[V:4] [M:3/2]G,4D,2 | 
[V:1] A4A2 | 
[V:2] f4f2 | 
[V:3] d2d2d2 | 
[V:4] D,2D,2F,2 | 
[V:1] c4c2 | 
[V:2] c2f2_e2 | 
[V:3] A4A2 | 
[V:4] F,4C,2 | 
[V:1] d4c2 | 
[V:2] d2>c2AF | 
[V:3] B4c2 | 
[V:4] B,,4z2 | 
[V:1] B2A4 | 
[V:2] f4f2 | 
[V:3] d4c2 | 
[V:4] B,,2F,4 | 
[V:1] G2z2z2 | 
[V:2] d2c3A | 
[V:3] B2A4 | 
[V:4] G,4^F,2 | 
[V:1] B2B2B2 | 
[V:2] B2dd2d | 
[V:3] G6 | 
[V:4] G,4G,,2 | 
[V:1] F2>E2D2 | 
[V:2] A4B2 | 
[V:3] z6 | 
[V:4] D,6 | 
[V:1] C2E4 | 
[V:2] c2c4 | 
[V:3] z6 | 
[V:4] A,,4A,,2 | 
[V:1] D2F2E2 | 
[V:2] d4c2 | 
[V:3] z6 | 
[V:4] B,,4C,2 | 
[V:1] D>EFGA2 | 
[V:2] B2A3G | 
[V:3] z6 | 
[V:4] D,4C,2 | 
[V:1] B2c3A | 
[V:2] G4^F2 | 
[V:3] z6 | 
[V:4] B,,2A,,4 | 
[V:1] [M:2/2]B4 | 
[V:2] [M:2/2]G>ABc/d/ | 
[V:3] [M:2/2]G4 | 
[V:4] [M:2/2]G,,4 | 
[V:1] G4 | 
[V:2] _e3d | 
[V:3] B3A | 
[V:4] G,3F, | 
[V:1] z2G2 | 
[V:2] cBc2 | 
[V:3] GFG2- | 
[V:4] _E,D,_E,2- | 
[V:1] G2B2 | 
[V:2] z_e>fg- | 
[V:3] G2G2 | 
[V:4] E,2_E,2 | 
[V:1] Bc>BA/G/ | 
[V:2] g/f/_e/d/c2 | 
[V:3] G4 | 
[V:4] _E,4 | 
[V:1] ^F4 | 
[V:2] d3c | 
[V:3] A4- | 
[V:4] D,4 | 
[V:1] ^F2F2 | 
[V:2] A2zd- | 
[V:3] A4- | 
[V:4] D,2D,2- | 
[V:1] ^FG2F | 
[V:2] dc/B/A2 | 
[V:3] A4 | 
[V:4] D,2D,2 | 
[V:1] G3F | 
[V:2] G4 | 
[V:3] B4- | 
[V:4] G,,4 | 
[V:1] D2D2 | 
[V:2] z4 | 
[V:3] B4 | 
[V:4] G,3F, | 
[V:1] F2D2 | 
[V:2] d>_ef3/_e/ | 
[V:3] z4 | 
[V:4] D,2B,,3/C,/ | 
[V:1] B,2C2 | 
[V:2] fg2f/_e/ | 
[V:3] z4 | 
[V:4] D,_E,2D,/C,/ | 
[V:1] DB,C2 | 
[V:2] d2z_e | 
[V:3] z4 | 
[V:4] B,,B,2A, | 
[V:1] B,B2A | 
[V:2] dBc2 | 
[V:3] z4 | 
[V:4] B,G,F,2 | 
[V:1] B4 | 
[V:2] B4 | 
[V:3] d4- | 
[V:4] B,,4 | 
[V:1] B2B2 | 
[V:2] f2f2 | 
[V:3] d4- | 
[V:4] B,,2B,,2 | 
[V:1] B3A | 
[V:2] f2d3/c/ | 
[V:3] d4- | 
[V:4] B,,2B,,2 | 
[V:1] F3G | 
[V:2] A2B2 | 
[V:3] d4 | 
[V:4] D,3_E, | 
[V:1] A3F | 
[V:2] A3B | 
[V:3] c4- | 
[V:4] F,3_E, | 
[V:1] G2A2- | 
[V:2] c2A2 | 
[V:3] c4 | 
[V:4] C,2F,2 | 
[V:1] AGG2- | 
[V:2] d2_e2 | 
[V:3] B4 | 
[V:4] G,2_E,2 | 
[V:1] GFF2- | 
[V:2] dc2B | 
[V:3] A4 | 
[V:4] F,4 | 
[V:1] F2E2 | 
[V:2] c4 | 
[V:3] G4 | 
[V:4] C,4 | 
[V:1] F4 | 
[V:2] A2FB- | 
[V:3] F4 | 
[V:4] D,4 | 
[V:1] D2CD- | 
[V:2] BA/G/AB- | 
[V:3] z4 | 
[V:4] B,,2C,B,, | 
[V:1] DB,A,2 | 
[V:2] BG2^F | 
[V:3] z4 | 
[V:4] G,,B,,C,D, | 
[V:1] G,2G2 | 
[V:2] G2z2 | 
[V:3] G4 | 
[V:4] G,,4- | 
[V:1] G4 | 
[V:2] G3A | 
[V:3] B4- | 
[V:4] G,,4 | 
[V:1] G2G2 | 
[V:2] Bcd2 | 
[V:3] B2G2- | 
[V:4] G,4 | 
[V:1] B3A | 
[V:2] _e>dB3/c/ | 
[V:3] G4 | 
[V:4] _E,4 | 
[V:1] F2F2 | 
[V:2] d2D2 | 
[V:3] A4 | 
[V:4] D,4 | 
[V:1] G4 | 
[V:2] D4 | 
[V:3] B4- | 
[V:4] G,,4 | 
[V:1] D>EFG- | 
[V:2] G2DC- | 
[V:3] B2de- | 
[V:4] z4 | 
[V:1] G/F/E/D/E2 | 
[V:2] CDA2 | 
[V:3] ed2^c | 
[V:4] z2A,,2 | 
[V:1] D2z2 | 
[V:2] D2z2 | 
[V:3] d4- | 
[V:4] B,,3C, | 
[V:1] F2G2 | 
[V:2] A2B2 | 
[V:3] d4- | 
[V:4] D,2G,,2 | 
[V:1] B2A2 | 
[V:2] G2A2 | 
[V:3] d4 | 
[V:4] G,2F,2- | 
[V:1] c3B | 
[V:2] z2G2- | 
[V:3] c4 | 
[V:4] F,_E,C,2 | 
[V:1] G3A- | 
[V:2] GB>cd- | 
[V:3] B>AGF | 
[V:4] _E,3D, | 
[V:1] AG2^F | 
[V:2] dcd2 | 
[V:3] G2A2 | 
[V:4] _E,2D,2 | 
[V:1] [M:3/2]G6 | 
[V:2] [M:3/2]z6 | 
[V:3] [M:3/2]G6 | 
[V:4] [M:3/2]G,,6- | 
[V:1] z6 | 
[V:2] G2G2G2 | 
[V:3] z6 | 
[V:4] G,,6 | 
[V:1] G2G2G2 | 
[V:2] B4B2 | 
[V:3] z6 | 
[V:4] z6 | 
[V:1] B4B2 | 
[V:2] G2>A2B2 | 
[V:3] z6 | 
[V:4] G,4G,2 | 
[V:1] G2>F2D2 | 
[V:2] _E2>F2G2 | 
[V:3] G4G2 | 
[V:4] B,2B,2B,2 | 
[V:1] G4F2 | 
[V:2] d4d2 | 
[V:3] B4B2 | 
[V:4] G,2>A,2B,2 | 
[V:1] G2B2c2 | 
[V:2] _e2g3f | 
[V:3] G4A2 | 
[V:4] _E,4C,2 | 
[V:1] d2>c2B2 | 
[V:2] d2f4 | 
[V:3] B2d4 | 
[V:4] B,,2>C,2D,_E, | 
[V:1] A2G3F | 
[V:2] c2_e4 | 
[V:3] c4B2 | 
[V:4] F,2_E,4 | 
[V:1] F4E2 | 
[V:2] c6 | 
[V:3] A2G4 | 
[V:4] F,2C,4 | 
[V:1] F6 | 
[V:2] A4F2 | 
[V:3] F6 | 
[V:4] D,4z2 | 
[V:1] z2z2F2 | 
[V:2] G2D4 | 
[V:3] z6 | 
[V:4] G,,2B,,4 | 
[V:1] G2D4 | 
[V:2] G2B4 | 
[V:3] z6 | 
[V:4] G,,4G,2- | 
[V:1] G2B4 | 
[V:2] G2>A2Bc/d/ | 
[V:3] z6 | 
[V:4] G,2_E,4 | 
[V:1] G4F2 | 
[V:2] _e2d4 | 
[V:3] G2B4 | 
[V:4] _E,2B,,4 | 
[V:1] G2B2c2 | 
[V:2] g2>f2_e2 | 
[V:3] G4A2 | 
[V:4] _E,4C,2 | 
[V:1] d4B2 | 
[V:2] d2f4 | 
[V:3] B2d4 | 
[V:4] B,,4D,2 | 
[V:1] c2>B2AG | 
[V:2] _e2>d2cB | 
[V:3] c2_e4 | 
[V:4] _E,2C,4 | 
[V:1] F4G2 | 
[V:2] A2d3e | 
[V:3] d2>c2B2 | 
[V:4] D,4G,2 | 
[V:1] A2B3A | 
[V:2] f2d2_e2- | 
[V:3] A2G2B2 | 
[V:4] F,2G,4 | 
[V:1] G4^F2 | 
[V:2] e2d4 | 
[V:3] c2A4 | 
[V:4] C,2D,4 | 
[V:1] G6- | 
[V:2] B2>c2_e2 | 
[V:3] G6- | 
[V:4] _E,2>D,2C,2 | 
[V:1] G6- | 
[V:2] d2cc2B/A/ | 
[V:3] G6- | 
[V:4] B,,2C,4 | 
[V:1] G6- | 
[V:2] B2>A2GF/_E/ | 
[V:3] G6- | 
[V:4] G,,6- | 
[V:1] G6 |]  
[V:2] D6 |]  
[V:3] G6 |]  
[V:4] G,,6 |]  


